X:1
T:Title
%%score 1 { ( 2 4 ) | ( 3 5 ) }
L:1/8
M:4/4
K:Bb
V:1 treble nm="Grand Piano"
V:2 treble nm="Grand Piano"
V:4 treble 
V:3 bass 
V:5 bass 
V:1
 z4 z2[Q:1/4=100] [B,D][CE] | [DF]2 [EG][DF] [Fd]2 [Ec][DB] | [Ec] [GB]2 [EG] [DF]3 [DF] | %3
 [DB]2 [DB][DB] [=Ed]2 [Ec][EB] |[M:3/4] [Fc]6 |[M:1/4] [B,D][CE] | %6
[M:4/4] [DF]2 [EG][DF] [Fd]2 [Fc][DB] | [Ec] [GB]2 [EG] [DF]3 [DF] | %8
 [EG][FA][GB][Ge] [Fd] [Fd]2 [Ec] |[M:3/4] [DB]6 |[M:1/4] z2 |[M:4/4] z8 | z8 | z8 | z8 | z8 | z8 | %17
 z8 |[M:3/4] z6 |] %19
V:2
 z4 z2 DE | [DF][K:bass]F,DF, z F,DF, | z G, .E2 z F,DF, | z DDD z =EEE | %4
[M:3/4] z[K:treble] C AG FE |[M:1/4] FG |[M:4/4] [DF][K:bass]F,DF, z F,DF, | z G,EG, z F,DF, | %8
 z G, .E2 z F,EF, |[M:3/4] z F, DF,[K:treble] D2 |[M:1/4] F2 |[M:4/4] d6 z2 | B2 A>G [DF]4 | %13
 A2 B>B c c3 | d2 [Fd]>[Fd] c2 F2 | d6 z2 | B2 A>G [DF]4 | [EG]2 z2 [Ec]4 |[M:3/4] [DB]6 |] %19
V:3
 z4 z2 B,C | z2 .B,2 z2 .B,2 | z2 B,G, z2 .B,2 | z [G,B,][G,B,][G,B,] z [G,B,C][G,B,C][G,B,C] | %4
[M:3/4] z2[K:treble] FE DC |[M:1/4] D[K:bass]E |[M:4/4] z2 .B,2 z2 .B,2 | z4 z2 .B,2 | %8
 z2 B,G, z2 .[A,C]2 |[M:3/4] z2 .B,2 B,2 |[M:1/4] z2 |[M:4/4] z2 [B,,B,]2 B,2 [F,A,E]2 | %12
 [G,B,D]2 [E,B,E]2 [B,,B,]4 | [F,CF]2 [F,DF]>[F,DF] [F,EF] [F,EF]3 | %14
 [B,F]2[K:bass] [B,,B,]>[D,B,] [F,A,F]2 z2 | z2 [B,,B,]2 B,2 [F,A,E]2 | %16
 [G,B,D]2 [E,B,E]2 [B,,B,]4 | [E,B,]2 z2 [F,A,]4 |[M:3/4] [B,,F,]6 |] %19
V:4
 x8 | z4[K:bass] B,,4 | E,,4 B,,4 | G,,4 C,4 |[M:3/4] F,,6[K:treble] |[M:1/4] x2 | %6
[M:4/4] z4[K:bass] B,,4 | E,,4 B,,4 | E,,4 z4 |[M:3/4] B,,6[K:treble] |[M:1/4] x2 | %11
[M:4/4] z2 F2 F2 c2 | x8 | x8 | x8 | z2 F2 F2 c2 | x8 | x8 |[M:3/4] x6 |] %19
V:5
 x8 | [B,,,B,,]4 B,,,4 | z4 B,,,4 | z4 C,,4 |[M:3/4] x2[K:treble] x4 |[M:1/4] x[K:bass] x | %6
[M:4/4] [B,,,B,,]4 B,,,4 | z4 B,,,4 | z4 F,,4 |[M:3/4] B,,,6 |[M:1/4] x2 |[M:4/4] x8 | x8 | x8 | %14
 x2[K:bass] x6 | x8 | x8 | x8 |[M:3/4] x6 |] %19

